X: 2273
M: 6/8
L: 1/8
K: F
(3(uc/d/e/) |\
vf2vF uF2uF | F2F F2G | A2B cBA | d3 cde |\
f2F F2F | F2F F2G | A2G F2E | D3- D2 (3(uc/d/e/) |\
vf2vF uF2uF | F2F F2G |
f2F F2F | F2F F2G | A2G F2E | D3- D2 |]\
uc |\
vd2vc ud2ue | f2g f2e | d2c d2e | f3 (f2g) |\
a2f g2e |
fed c2A | cde fcA | G3 (GAG) |\


